X:1
T:When We Get Home
T:When We Get Home
T:R. Edwin Perry
T:M. A. Hood, 1923
T:Public Domain Courtesy of the Cyber Hymnal™
T:Public Domain Courtesy of the Cyber Hymnal™
C:R. Edwin Perry
Z:Public Domain
Z:Courtesy of the Cyber Hymnal™
%%score ( 1 2 ) ( 3 4 )
L:1/8
Q:1/4=105
M:4/4
K:F
V:1 treble 
V:2 treble 
V:3 bass 
V:4 bass 
V:1
 [FA][FB] | [Fc]2 [Fd]2 [Fc]2 [FA][CG] | [DF]2 [DG]2 [DF]2 F[EG] | [FA]2 [Fc]2 [Fd][Fc][GB][FA] | %4
w: 1.~Far be-|yond the strife of this|earth- ly life, There’s a|home pre- pared for us a-|
w: 2.~In that|home so sweet with its|joys com- plete, We shall|find the rest for which we|
w: 3.~Just in-|side the gate, where our|loved ones wait, Je- sus|our dear Sav- ior we shall|
 [EG]6 [FA][FB] | [Fc]2 [Fd]2 [Fc]2 [FA][CG] | [DF]2 [DG]2 [DF]2 F[EG] | %7
w: bove; And some|bless- èd day we’ll go|there to stay, Ev- er-|
w: sigh; Sing re-|demp- tion’s song with the|blood washed throng, When we|
w: see; Look up-|on His face, praise Him|for His grace, O how|
 [FA][Fc][Fc][GB] [FA]2 [EG]2 | F6 ||"^Refrain" [Fc]2 | c4 c4 | c6 [Fc]2 | d2 e2 f2 [Fd]2 | %13
w: more to sing of Je- sus’|love.|||||
w: reach that ci- ty by and|by.|When|we get|home, No|more we’ll wan- der,|
w: sweet ’twill be to you and|me.|||||
 d2 c2 c2 [Gc]2 | [Ff]2 [Fe]2 [Fd]2 [Ec]2 | (dc) [Fc]2 [FA]2 [CF]2 | [B,D]2 [DG]2 [CF]2 [CE]2 | %17
w: ||||
w: no more roam, But|peace com- plete and|rap- * ture sweet We’ll|share when we get|
w: ||||
 [CF]6 |] %18
w: |
w: home.|
w: |
V:2
 x2 | x8 | x6 F x | x8 | x8 | x8 | x6 F x | x8 | F6 || x2 | (E2 F2) (G2 E2) | (F2 G2 A2) x2 | %12
 F6 x2 | F6 x2 | x8 | F2 x6 | x8 | x6 |] %18
V:3
 F,[F,G,] | [F,A,]2 [F,B,]2 [F,A,]2 [F,C][F,A,] | [B,,B,]2 [B,,B,]2 [B,,B,]2 [A,,C][C,C] | %3
w: When *|||
 [F,C]2 [F,A,]2 [F,B,][F,A,][E,C][F,C] | [C,C]6 F,[F,G,] | [F,A,]2 [F,B,]2 [F,A,]2 [F,C][F,A,] | %6
w: |* we *||
 [B,,B,]2 [B,,B,]2 [B,,B,]2 [A,,C][C,C] | [F,C][F,A,][F,A,][B,,D] [C,C]2 [C,B,]2 | [F,A,]6 || %9
w: |||
 [F,A,]2 | G,2 A,2 B,2 [C,G,]2 | A,2 B,2 C2 [F,A,]2 | B,2 C2 D2 [B,,B,]2 | B,2 A,2 A,2 [E,C]2 | %14
w: shall|reach our home, dear|home, * * *|||
 [D,A,]2 [A,,C]2 [B,,B,]2 [C,G,]2 | (B,A,) [F,A,]2 [F,C]2 [A,,F,]2 | %16
w: ||
 [B,,F,]2 [G,,B,]2 [C,A,]2 [C,G,]2 | [F,A,]6 |] %18
w: ||
V:4
 F, x | x8 | x8 | x8 | x6 F, x | x8 | x8 | x8 | x6 || x2 | C,6 x2 | F,6 x2 | B,,6 x2 | F,6 x2 | %14
 x8 | F,2 x6 | x8 | x6 |] %18

